pix_core/i/item.svg

<!DOCTYPE svg PUBLIC "-//W3C//DTD SVG 1.1//EN" "http://www.w3.org/Graphics/SVG/1.1/DTD/svg11.dtd" [
	<!ENTITY ns_flows "http://ns.adobe.com/Flows/1.0/">
]><svg xmlns="http://www.w3.org/2000/svg" width="16" height="16" viewBox="-5 -5 16 16" preserveAspectRatio="xMinYMid meet" overflow="visible" enable-background="new -5 -5 16 16"><path d="M5 0h-4c-.5 0-1 .5-1 1v4c0 .5.5 1 1 1h4c.5 0 1-.5 1-1v-4c0-.5-.5-1-1-1zm-1 3.5c0 .3-.2.5-.5.5h-1c-.3 0-.5-.2-.5-.5v-1c0-.3.2-.5.5-.5h1c.3 0 .5.2.5.5v1z" fill="#888"/></svg>

<?xml version="1.0" encoding="utf-8"?>
<!-- Generator: Adobe Illustrator 15.1.0, SVG Export Plug-In  -->
<!DOCTYPE svg PUBLIC "-//W3C//DTD SVG 1.1//EN" "http://www.w3.org/Graphics/SVG/1.1/DTD/svg11.dtd" [
	<!ENTITY ns_flows "http://ns.adobe.com/Flows/1.0/">
]>
<svg version="1.1"
	 xmlns="http://www.w3.org/2000/svg" xmlns:xlink="http://www.w3.org/1999/xlink" xmlns:a="http://ns.adobe.com/AdobeSVGViewerExtensions/3.0/"
	 x="0px" y="0px" width="16px" height="16px" viewBox="-5 -5 16 16" style="overflow:visible;enable-background:new -5 -5 16 16;"
	 xml:space="preserve" preserveAspectRatio="xMinYMid meet">
<defs>
</defs>
<path style="fill:#29a1c4;" d="M5,0H1C0.5,0,0,0.5,0,1v4c0,0.5,0.5,1,1,1h4c0.5,0,1-0.5,1-1V1C6,0.5,5.5,0,5,0z M4,3.5
	C4,3.8,3.8,4,3.5,4h-1C2.2,4,2,3.8,2,3.5v-1C2,2.2,2.2,2,2.5,2h1C3.8,2,4,2.2,4,2.5V3.5z"/>
</svg>
